Avidclan_Website/assets/images/icons/consistent-ic.svg

<svg width="415" height="415" viewBox="0 0 415 415" fill="none" xmlns="http://www.w3.org/2000/svg">
<g clip-path="url(#clip0_493_340)">
<path d="M207.2 192.4C199 192.4 192.4 199 192.4 207.2V236.8C192.4 245 199 251.6 207.2 251.6C215.4 251.6 222 245 222 236.8V207.2C222 199 215.4 192.4 207.2 192.4Z" fill="#0E53BE"/>
<path d="M251.6 192.4C243.4 192.4 236.8 199 236.8 207.2V236.8C236.8 245 243.4 251.6 251.6 251.6C259.8 251.6 266.4 245 266.4 236.8V207.2C266.4 199 259.8 192.4 251.6 192.4Z" fill="#0E53BE"/>
<path d="M296 192.4C287.8 192.4 281.2 199 281.2 207.2V236.8C281.2 245 287.8 251.6 296 251.6C304.2 251.6 310.8 245 310.8 236.8V207.2C310.8 199 304.2 192.4 296 192.4Z" fill="#0E53BE"/>
<path d="M207.2 370C215.4 370 222 363.4 222 355.2V325.6C222 317.4 215.4 310.8 207.2 310.8C199 310.8 192.4 317.4 192.4 325.6V355.2C192.4 363.4 199 370 207.2 370Z" fill="#0E53BE"/>
<path d="M251.6 370C259.8 370 266.4 363.4 266.4 355.2V325.6C266.4 317.4 259.8 310.8 251.6 310.8C243.4 310.8 236.8 317.4 236.8 325.6V355.2C236.8 363.4 243.4 370 251.6 370Z" fill="#0E53BE"/>
<path d="M296 370C304.2 370 310.8 363.4 310.8 355.2V325.6C310.8 317.4 304.2 310.8 296 310.8C287.8 310.8 281.2 317.4 281.2 325.6V355.2C281.2 363.4 287.8 370 296 370Z" fill="#0E53BE"/>
<path d="M310.8 148H103.6C79.0999 148 59.2 167.9 59.2 192.4V370C59.2 394.5 79.0999 414.4 103.6 414.4H310.8C335.3 414.4 355.2 394.5 355.2 370V192.4C355.2 167.9 335.3 148 310.8 148ZM88.8 192.4C88.8 184.2 95.3999 177.6 103.6 177.6H310.8C319 177.6 325.6 184.2 325.6 192.4V266.4H88.8V192.4ZM325.6 370C325.6 378.2 319 384.8 310.8 384.8H103.6C95.3999 384.8 88.8 378.2 88.8 370V296H325.6V370Z" fill="#0E53BE"/>
<path d="M88.7999 59.2C88.7999 54.5 86.5999 50.2 82.8999 47.4L23.6999 2.99999C17.1999 -1.90001 7.89995 -0.600006 2.99995 5.89999C-1.90005 12.4 -0.600055 21.7 5.99995 26.6L49.3999 59.2L5.89995 91.8C-0.600055 96.7 -2.00005 106 2.89995 112.5C5.79995 116.4 10.1999 118.4 14.7999 118.4C17.8999 118.4 20.9999 117.4 23.6999 115.4L82.8999 71C86.5999 68.2 88.7999 63.9 88.7999 59.2Z" fill="#0E53BE"/>
<path d="M106.6 112.5C109.5 116.4 113.9 118.4 118.5 118.4C121.6 118.4 124.7 117.4 127.4 115.4L186.5 71C190.2 68.2 192.4 63.8 192.4 59.2C192.4 54.6 190.2 50.2 186.5 47.4L127.3 2.99998C120.8 -1.90002 111.5 -0.600018 106.6 5.99998C101.7 12.5 103 21.8 109.6 26.7L153 59.3L109.6 91.9C103 96.7 101.6 105.9 106.6 112.5Z" fill="#0E53BE"/>
<path d="M225 112.5C227.9 116.4 232.3 118.4 236.9 118.4C240 118.4 243.1 117.4 245.8 115.4L304.9 71C308.6 68.2 310.8 63.8 310.8 59.2C310.8 54.6 308.6 50.2 304.9 47.4L245.7 2.99998C239.2 -1.90002 229.9 -0.600018 225 5.99998C220.1 12.5 221.4 21.8 228 26.7L271.4 59.3L228 91.9C221.4 96.7 220 105.9 225 112.5Z" fill="#0E53BE"/>
<path d="M408.5 47.4L349.3 2.99998C342.8 -1.90002 333.5 -0.600018 328.6 5.99998C323.7 12.5 325 21.8 331.6 26.7L375 59.3L331.6 91.9C325.1 96.8 323.7 106.1 328.6 112.6C331.5 116.5 335.9 118.5 340.5 118.5C343.6 118.5 346.7 117.5 349.4 115.5L408.5 71C412.2 68.2 414.4 63.8 414.4 59.2C414.4 54.5 412.2 50.2 408.5 47.4Z" fill="#0E53BE"/>
</g>
<defs>
<clipPath id="clip0_493_340">
<rect width="414.4" height="414.4" fill="white"/>
</clipPath>
</defs>
</svg>

<?xml version="1.0" encoding="utf-8"?>
<!-- Generator: Adobe Illustrator 24.1.1, SVG Export Plug-In . SVG Version: 6.00 Build 0)  -->
<svg version="1.1" id="Layer_1" xmlns="http://www.w3.org/2000/svg" xmlns:xlink="http://www.w3.org/1999/xlink" x="0px" y="0px"
	 viewBox="0 0 414.4 414.4" style="enable-background:new 0 0 414.4 414.4;" xml:space="preserve">
<style type="text/css">
	.st0{fill:#007AFB;}
</style>
<g>
	<path class="st0" d="M207.2,192.4c-8.2,0-14.8,6.6-14.8,14.8v29.6c0,8.2,6.6,14.8,14.8,14.8S222,245,222,236.8v-29.6
		C222,199,215.4,192.4,207.2,192.4z"/>
	<path class="st0" d="M251.6,192.4c-8.2,0-14.8,6.6-14.8,14.8v29.6c0,8.2,6.6,14.8,14.8,14.8c8.2,0,14.8-6.6,14.8-14.8v-29.6
		C266.4,199,259.8,192.4,251.6,192.4z"/>
	<path class="st0" d="M296,192.4c-8.2,0-14.8,6.6-14.8,14.8v29.6c0,8.2,6.6,14.8,14.8,14.8s14.8-6.6,14.8-14.8v-29.6
		C310.8,199,304.2,192.4,296,192.4z"/>
	<path class="st0" d="M207.2,370c8.2,0,14.8-6.6,14.8-14.8v-29.6c0-8.2-6.6-14.8-14.8-14.8s-14.8,6.6-14.8,14.8v29.6
		C192.4,363.4,199,370,207.2,370z"/>
	<path class="st0" d="M251.6,370c8.2,0,14.8-6.6,14.8-14.8v-29.6c0-8.2-6.6-14.8-14.8-14.8c-8.2,0-14.8,6.6-14.8,14.8v29.6
		C236.8,363.4,243.4,370,251.6,370z"/>
	<path class="st0" d="M296,370c8.2,0,14.8-6.6,14.8-14.8v-29.6c0-8.2-6.6-14.8-14.8-14.8s-14.8,6.6-14.8,14.8v29.6
		C281.2,363.4,287.8,370,296,370z"/>
	<path class="st0" d="M310.8,148H103.6c-24.5,0-44.4,19.9-44.4,44.4V370c0,24.5,19.9,44.4,44.4,44.4h207.2
		c24.5,0,44.4-19.9,44.4-44.4V192.4C355.2,167.9,335.3,148,310.8,148L310.8,148z M88.8,192.4c0-8.2,6.6-14.8,14.8-14.8h207.2
		c8.2,0,14.8,6.6,14.8,14.8v74H88.8L88.8,192.4z M325.6,370c0,8.2-6.6,14.8-14.8,14.8H103.6c-8.2,0-14.8-6.6-14.8-14.8v-74h236.8
		L325.6,370z"/>
	<path class="st0" d="M88.8,59.2c0-4.7-2.2-9-5.9-11.8L23.7,3C17.2-1.9,7.9-0.6,3,5.9c-4.9,6.5-3.6,15.8,3,20.7l43.4,32.6L5.9,91.8
		c-6.5,4.9-7.9,14.2-3,20.7c2.9,3.9,7.3,5.9,11.9,5.9c3.1,0,6.2-1,8.9-3L82.9,71C86.6,68.2,88.8,63.9,88.8,59.2L88.8,59.2z"/>
	<path class="st0" d="M106.6,112.5c2.9,3.9,7.3,5.9,11.9,5.9c3.1,0,6.2-1,8.9-3L186.5,71c3.7-2.8,5.9-7.2,5.9-11.8s-2.2-9-5.9-11.8
		L127.3,3c-6.5-4.9-15.8-3.6-20.7,3c-4.9,6.5-3.6,15.8,3,20.7l43.4,32.6l-43.4,32.6C103,96.7,101.6,105.9,106.6,112.5L106.6,112.5z"
		/>
	<path class="st0" d="M225,112.5c2.9,3.9,7.3,5.9,11.9,5.9c3.1,0,6.2-1,8.9-3L304.9,71c3.7-2.8,5.9-7.2,5.9-11.8s-2.2-9-5.9-11.8
		L245.7,3c-6.5-4.9-15.8-3.6-20.7,3c-4.9,6.5-3.6,15.8,3,20.7l43.4,32.6l-43.4,32.6C221.4,96.7,220,105.9,225,112.5L225,112.5z"/>
	<path class="st0" d="M408.5,47.4L349.3,3c-6.5-4.9-15.8-3.6-20.7,3c-4.9,6.5-3.6,15.8,3,20.7l43.4,32.6l-43.4,32.6
		c-6.5,4.9-7.9,14.2-3,20.7c2.9,3.9,7.3,5.9,11.9,5.9c3.1,0,6.2-1,8.9-3L408.5,71c3.7-2.8,5.9-7.2,5.9-11.8
		C414.4,54.5,412.2,50.2,408.5,47.4L408.5,47.4z"/>
</g>
</svg>
